src/Images/hadith.svg

<?xml version="1.0" encoding="iso-8859-1"?>
<!-- Generator: Adobe Illustrator 18.0.0, SVG Export Plug-In . SVG Version: 6.00 Build 0)  -->
<!DOCTYPE svg PUBLIC "-//W3C//DTD SVG 1.1//EN" "http://www.w3.org/Graphics/SVG/1.1/DTD/svg11.dtd">
<svg version="1.1" id="Capa_1" xmlns="http://www.w3.org/2000/svg" xmlns:xlink="http://www.w3.org/1999/xlink" x="0px" y="0px"
	 viewBox="0 0 512 512" style="enable-background:new 0 0 512 512;" xml:space="preserve">
<g>
	<path style="fill:#AF6328;" d="M0,440l0-32c0-8.837,7.163-16,16-16h480c8.837,0,16,7.163,16,16v32c0,8.837-7.163,16-16,16H16
		C7.163,456,0,448.837,0,440z"/>
	<path style="fill:#A25425;" d="M496,424v8c0,4.418-3.582,8-8,8H32c-8.837,0-16,7.163-16,16l0,0h232h144h104c8.837,0,16-7.163,16-16
		v-32l0,0C503.163,408,496,415.163,496,424z"/>
	<path style="fill:#3CB44A;" d="M160,392H64V144c0-4.418,3.582-8,8-8h80c4.418,0,8,3.582,8,8V392z"/>
	<path style="fill:#4C9BD5;" d="M448,392h-96V144c0-4.418,3.582-8,8-8h80c4.418,0,8,3.582,8,8V392z"/>
	<path style="fill:#ED2C39;" d="M256,392h-96V64c0-4.418,3.582-8,8-8h80c4.418,0,8,3.582,8,8V392z"/>
	<path style="fill:#FFCF68;" d="M352,392h-96V96c0-4.418,3.582-8,8-8h80c4.418,0,8,3.582,8,8V392z"/>
	<path style="fill:#CB202C;" d="M176,376h56c4.418,0,8-3.582,8-8V80c0-8.837,7.163-16,16-16l0,0v64v144v120h-96l0,0
		C160,383.163,167.163,376,176,376z"/>
	<path style="fill:#F5B445;" d="M272,376h56c4.418,0,8-3.582,8-8V112c0-8.837,7.163-16,16-16l0,0v64v112v120h-96l0,0
		C256,383.163,263.163,376,272,376z"/>
	<path style="fill:#3688C8;" d="M368,376h56c4.418,0,8-3.582,8-8V160c0-8.837,7.163-16,16-16l0,0v64v64v120h-96l0,0
		C352,383.163,359.163,376,368,376z"/>
	<path style="fill:#0E9247;" d="M80,376h56c4.418,0,8-3.582,8-8V160c0-8.837,7.163-16,16-16l0,0v64v64v120H64l0,0
		C64,383.163,71.163,376,80,376z"/>
	<rect x="160" y="104" style="fill:#B52025;" width="96" height="8"/>
	<rect x="160" y="120" style="fill:#B52025;" width="96" height="8"/>
	<rect x="64" y="168" style="fill:#04803D;" width="96" height="8"/>
	<rect x="64" y="184" style="fill:#04803D;" width="96" height="8"/>
	<rect x="64" y="336" style="fill:#04803D;" width="96" height="8"/>
	<rect x="64" y="352" style="fill:#04803D;" width="96" height="8"/>
	<rect x="352" y="168" style="fill:#0261A4;" width="96" height="8"/>
	<rect x="352" y="184" style="fill:#0261A4;" width="96" height="8"/>
	<rect x="352" y="336" style="fill:#0261A4;" width="96" height="8"/>
	<rect x="352" y="352" style="fill:#0261A4;" width="96" height="8"/>
	<rect x="256" y="120" style="fill:#F09820;" width="96" height="8"/>
	<rect x="256" y="136" style="fill:#F09820;" width="96" height="8"/>
	<rect x="256" y="336" style="fill:#F09820;" width="96" height="8"/>
	<rect x="256" y="352" style="fill:#F09820;" width="96" height="8"/>
	<rect x="160" y="328" style="fill:#B52025;" width="96" height="8"/>
	<rect x="160" y="344" style="fill:#B52025;" width="96" height="8"/>
	<path style="fill:#E2E4E6;" d="M215,288h-14c-0.552,0-1-0.448-1-1V161c0-0.552,0.448-1,1-1h14c0.552,0,1,0.448,1,1v126
		C216,287.552,215.552,288,215,288z"/>
	<path style="fill:#F09820;" d="M311,280h-14c-0.552,0-1-0.448-1-1v-86c0-0.552,0.448-1,1-1h14c0.552,0,1,0.448,1,1v86
		C312,279.552,311.552,280,311,280z"/>
	<path style="fill:#E2E4E6;" d="M119,304h-14c-0.552,0-1-0.448-1-1v-54c0-0.552,0.448-1,1-1h14c0.552,0,1,0.448,1,1v54
		C120,303.552,119.552,304,119,304z"/>
	<path style="fill:#0261A4;" d="M407,312h-14c-0.552,0-1-0.448-1-1v-54c0-0.552,0.448-1,1-1h14c0.552,0,1,0.448,1,1v54
		C408,311.552,407.552,312,407,312z"/>
	<path style="fill:#E2E4E6;" d="M119,240h-14c-0.552,0-1-0.448-1-1v-22c0-0.552,0.448-1,1-1h14c0.552,0,1,0.448,1,1v22
		C120,239.552,119.552,240,119,240z"/>
	<circle style="fill:#0261A4;" cx="400" cy="240" r="8"/>
</g>
<g>
</g>
<g>
</g>
<g>
</g>
<g>
</g>
<g>
</g>
<g>
</g>
<g>
</g>
<g>
</g>
<g>
</g>
<g>
</g>
<g>
</g>
<g>
</g>
<g>
</g>
<g>
</g>
<g>
</g>
</svg>

<svg width="512" height="512" viewBox="0 0 512 512" fill="none" xmlns="http://www.w3.org/2000/svg">
<path d="M0 440V408C0 399.163 7.163 392 16 392H496C504.837 392 512 399.163 512 408V440C512 448.837 504.837 456 496 456H16C7.163 456 0 448.837 0 440Z" fill="#0261A4"/>
<path d="M496 424V432C496 436.418 492.418 440 488 440H32C23.163 440 16 447.163 16 456H248H392H496C504.837 456 512 448.837 512 440V408C503.163 408 496 415.163 496 424Z" fill="#4C9BD5"/>
<path d="M160 392H64V144C64 139.582 67.582 136 72 136H152C156.418 136 160 139.582 160 144V392Z" fill="#0261A4"/>
<path d="M448 392H352V144C352 139.582 355.582 136 360 136H440C444.418 136 448 139.582 448 144V392Z" fill="#4C9BD5"/>
<path d="M256 392H160V64C160 59.582 163.582 56 168 56H248C252.418 56 256 59.582 256 64V392Z" fill="#38BDF8"/>
<path d="M352 392H256V96C256 91.582 259.582 88 264 88H344C348.418 88 352 91.582 352 96V392Z" fill="#0261A4"/>
<path d="M176 376H232C236.418 376 240 372.418 240 368V80C240 71.163 247.163 64 256 64V128V272V392H160C160 383.163 167.163 376 176 376Z" fill="#4C9BD5"/>
<path d="M272 376H328C332.418 376 336 372.418 336 368V112C336 103.163 343.163 96 352 96V160V272V392H256C256 383.163 263.163 376 272 376Z" fill="#E2E4E6"/>
<path d="M368 376H424C428.418 376 432 372.418 432 368V160C432 151.163 439.163 144 448 144V208V272V392H352C352 383.163 359.163 376 368 376Z" fill="#3688C8"/>
<path d="M80 376H136C140.418 376 144 372.418 144 368V160C144 151.163 151.163 144 160 144V208V272V392H64C64 383.163 71.163 376 80 376Z" fill="#3688C8"/>
<path d="M256 104H160V112H256V104Z" fill="#0261A4"/>
<path d="M256 120H160V128H256V120Z" fill="#0261A4"/>
<path d="M160 168H64V176H160V168Z" fill="#A4A8AA"/>
<path d="M160 184H64V192H160V184Z" fill="#A4A8AA"/>
<path d="M160 336H64V344H160V336Z" fill="#38BDF8"/>
<path d="M160 352H64V360H160V352Z" fill="#38BDF8"/>
<path d="M448 168H352V176H448V168Z" fill="#0261A4"/>
<path d="M448 184H352V192H448V184Z" fill="#0261A4"/>
<path d="M448 336H352V344H448V336Z" fill="#0261A4"/>
<path d="M448 352H352V360H448V352Z" fill="#0261A4"/>
<path d="M352 120H256V128H352V120Z" fill="#4C9BD5"/>
<path d="M352 136H256V144H352V136Z" fill="#4C9BD5"/>
<path d="M352 336H256V344H352V336Z" fill="#4C9BD5"/>
<path d="M352 352H256V360H352V352Z" fill="#4C9BD5"/>
<path d="M256 328H160V336H256V328Z" fill="#0261A4"/>
<path d="M256 344H160V352H256V344Z" fill="#0261A4"/>
<path d="M215 288H201C200.448 288 200 287.552 200 287V161C200 160.448 200.448 160 201 160H215C215.552 160 216 160.448 216 161V287C216 287.552 215.552 288 215 288Z" fill="#E2E4E6"/>
<path d="M311 280H297C296.448 280 296 279.552 296 279V193C296 192.448 296.448 192 297 192H311C311.552 192 312 192.448 312 193V279C312 279.552 311.552 280 311 280Z" fill="#4C9BD5"/>
<path d="M119 304H105C104.448 304 104 303.552 104 303V249C104 248.448 104.448 248 105 248H119C119.552 248 120 248.448 120 249V303C120 303.552 119.552 304 119 304Z" fill="#E2E4E6"/>
<path d="M407 312H393C392.448 312 392 311.552 392 311V257C392 256.448 392.448 256 393 256H407C407.552 256 408 256.448 408 257V311C408 311.552 407.552 312 407 312Z" fill="#3688C8"/>
<path d="M119 240H105C104.448 240 104 239.552 104 239V217C104 216.448 104.448 216 105 216H119C119.552 216 120 216.448 120 217V239C120 239.552 119.552 240 119 240Z" fill="#E2E4E6"/>
<path d="M400 248C404.418 248 408 244.418 408 240C408 235.582 404.418 232 400 232C395.582 232 392 235.582 392 240C392 244.418 395.582 248 400 248Z" fill="#0261A4"/>
</svg>
